X: 40922
T: Trip To Bannow, The
R: jig
M: 6/8
K: Dmajor
|:d3 A2 c|dB/c/d ecA|d3 A2 B|AGE FDD|
d3 A2 c|dB/c/d ecA|d3 A2B|AGE FDD:|
|:D3 A2 G|FDF GEE|D3 A2d|cAG FDD|
D3 A2G|FDF GEE|D3 A2d|cAG FGE:|

